assets/images/favicon.svg

<svg fill="none" height="1000" viewBox="0 0 1000 1000" width="1000" xmlns="http://www.w3.org/2000/svg"><path d="m0 0h1000v1000h-1000z" fill="#fa5d00"/><g fill="#fff"><path d="m830.025 297.472c90.918 153.658 65.605 350.319-61.062 476.069-74.821 75.648-174.953 115.199-275.089 115.199-47.216 0-95.553-8.138-141.597-26.777l47.213 83.785-40.288 23.276-86.332-154.798 153.108-87.287 23.021 40.734-85.163 48.871c126.621 53.554 275.094 25.641 374.107-74.466 110.479-111.738 132.372-285.13 52.964-421.331zm-105.883-110.572-153.108 87.287-23.022-40.734 89.795-51.189c-128.912-60.507-283.189-33.732-385.619 69.829-110.523 111.691-132.376 285.134-52.968 421.289l-39.166 23.288c-90.9232-154.799-65.5991-351.472 59.847-478.351 111.703-112.88 278.612-144.2937 421.326-86.103l-43.751-77.967 40.289-23.2763z"/><path d="m547.709 521.313c0 12.607-9.875 22.962-22.422 22.962h-45.266v135.856h-22.872v-204.293c0-12.607 10.296-22.482 22.872-22.483h67.688zm-181.046 135.848c0 12.607-9.876 22.963-22.423 22.963h-22.873v-341.108c0-12.607 10.296-22.512 22.873-22.512h22.423zm67.88-90.439c0 12.606-10.295 22.511-22.872 22.511v90.891h-22.423v-340.658c0-12.607 10.296-22.962 22.423-22.962h22.872zm181.323 90.439c0 12.607-10.295 22.963-22.422 22.963h-22.873v-250.218c0-12.607 10.296-22.512 22.873-22.512v-90.89h22.422zm68.128 0c0 12.607-9.876 22.963-22.423 22.963h-22.872v-341.108c0-12.607 10.296-22.512 22.872-22.512h22.423z"/></g></svg>

<svg width="1000" height="1000" viewBox="0 0 1000 1000" fill="none" xmlns="http://www.w3.org/2000/svg">
<rect width="1000" height="1000" fill="#FA5D00"/>
<path d="M830.025 297.472C920.943 451.13 895.63 647.791 768.963 773.541C694.142 849.189 594.01 888.74 493.874 888.74C446.658 888.74 398.321 880.602 352.277 861.963L399.49 945.748L359.202 969.024L272.87 814.226L425.978 726.939L448.999 767.673L363.836 816.544C490.457 870.098 638.93 842.185 737.943 742.078C848.422 630.34 870.315 456.948 790.907 320.747L830.025 297.472ZM724.142 186.9L571.034 274.187L548.012 233.453L637.807 182.264C508.895 121.757 354.618 148.532 252.188 252.093C141.665 363.784 119.812 537.227 199.22 673.382L160.054 696.67C69.1308 541.871 94.4549 345.198 219.901 218.319C331.604 105.439 498.513 74.0253 641.227 132.216L597.476 54.249L637.765 30.9727L724.142 186.9Z" fill="white"/>
<path d="M547.709 521.313C547.709 533.92 537.834 544.275 525.287 544.275H480.021V680.131H457.149V475.838C457.149 463.231 467.445 453.356 480.021 453.355H547.709V521.313ZM366.663 657.161C366.663 669.768 356.787 680.124 344.24 680.124H321.367V339.016C321.367 326.409 331.663 316.504 344.24 316.504H366.663V657.161ZM434.543 566.722C434.543 579.328 424.248 589.233 411.671 589.233V680.124H389.248V339.466C389.248 326.859 399.544 316.504 411.671 316.504H434.543V566.722ZM615.866 657.161C615.866 669.768 605.571 680.124 593.444 680.124H570.571V429.906C570.571 417.299 580.867 407.394 593.444 407.394V316.504H615.866V657.161ZM683.994 657.161C683.994 669.768 674.118 680.124 661.571 680.124H638.699V339.016C638.699 326.409 648.995 316.504 661.571 316.504H683.994V657.161Z" fill="white"/>
</svg>
